X:1
T:Mug of Brown Ale
M:6/8
L:1/8
R:Jig
K:Ador
| "Am"eAA fAA | gAA afe | "G"dBA G2A | B2A B^cd |
"Am"eAA fAA | gAA afe | "G"dBB gBB | BAG "Am"A3 :|
|: "Am"efg a3 | aba afe | "G"def g3  | gba gfe|
"Am"efg a3 | aba afe | "G"dBB gBB | BAG "Am"A3 :|
